apple2/_inc/system.svg

<svg xmlns="http://www.w3.org/2000/svg"><g fill="#fff"><path d="m98.393 31.43c6.568-7.206 9.99-17.325 10.462-30.936l.011-.494-.484.099c-23.069 4.718-34.981 19.175-35.409 42.967l-.008.463.458-.071c10.986-1.721 19.151-5.656 24.96-12.028z"/><path d="m19.016 153.809.424.61c3.813 5.499 8.185 10.849 12.994 15.906 3.662 3.85 9.497 5.969 16.426 5.969 5.079 0 10.345-1.195 13.744-3.117 7.031-3.974 10.758-3.983 13.478-3.987.546 0 1.056-.002 1.547-.031l.444-.029c.589-.037 1.196-.078 1.882-.078 2.412 0 6.013.473 12.562 4.174 4.57 1.916 9.002 2.886 13.171 2.886h.002c11.355 0 21.31-7.106 30.435-21.707l.373-.596h-117.482l.003-.011z"/><path d="m137.846 62.691c1.517-1.512 3.154-3.005 4.912-4.471l.294-.245-.242-.299c-8.559-10.557-20.279-16.25-33.891-16.465l-.624-.003c-6.899 0-13 1.294-17.642 3.74-6.021 3.17-10.497 3.873-10.541 3.879-.078.011-.572.03-1.923.03-1.641 0-3.058-.027-3.228-.051l-.108-.014c-1.93-.249-6.851-1.059-10.839-3.185-5.421-2.89-11.46-4.419-17.464-4.419l-.396.002c-15.876.177-29.148 7.914-37.394 21.501h129.095z"/><path d="m124.532 85.261c1.562-7.554 5.78-14.889 12.656-21.907l.648-.663h-129.074l-.114.188c-3.956 6.564-6.576 14.157-7.821 22.381l123.708.001z"/><path d="m127.56 107.558c-3.121-6.413-4.654-13.821-3.101-21.827l.089-.464h-123.708l-.045.329c-1.046 7.13-1.046 14.512-.078 21.96h126.852z"/><path d="m6.788 130.944h141.378l.827-1.791-.34-.167c-6.766-3.35-15.836-10.684-21.001-21.216l-.107-.217h-126.832l.059.439c.863 6.471 2.626 14.302 6.023 22.961z"/><path d="m19.019 153.809h117.471c4.484-7.269 8.182-15.272 11.43-22.304l.255-.553h-141.367l.214.534c3.094 7.713 7.107 15.172 11.999 22.323z"/><path d="m397.279 40.935v82.995h19.715v-82.996h-19.71zm130.359 0v11.149h11.584c1.436 0 2.599 1.197 2.599 2.674v55.369c0 1.478-1.172 2.673-2.599 2.673h-11.584v11.172h31.2v-83.039h-31.195zm40.928 0v83.037h31.202v-11.172h-11.582c-1.439 0-2.601-1.195-2.601-2.673v-55.372c0-1.476 1.163-2.673 2.601-2.673h11.582v-11.149h-31.206zm-401.586 19.945c-9.394 0-17.033 3.089-23.422 9.434-6.432 6.393-9.469 13.462-9.469 21.704 0 8.124 3.204 15.295 10.012 21.999 6.792 6.693 14.336 9.913 23.111 9.913h12.71v-14.599h-5.239c-5.03 0-9.54-1.644-13.059-4.848-3.52-3.203-5.434-7.5-5.434-12.245 0-4.794 1.875-9.11 5.357-12.188 3.461-3.064 7.906-4.567 12.904-4.567h13.758c1.436 0 2.599 1.195 2.599 2.671v45.776h19.715v-63.051h-43.563zm56.483 0v82.996h19.734v-65.721c0-1.476 1.164-2.671 2.6-2.671h12.806c5.381 0 10.209 1.865 13.99 5.485 3.496 3.348 5.452 7.573 5.452 12.147 0 4.73-2.1 8.978-5.88 11.906-3.731 2.894-8.37 4.312-13.563 4.312h-4.522v14.598h13.293c9.252 0 16.859-2.981 23.286-9.054 6.422-6.07 9.488-13.145 9.488-21.862 0-9.031-3.074-16.418-9.47-22.738-6.404-6.328-13.843-9.395-22.82-9.395l-44.402-.003zm86.913 0v82.996h19.714v-65.721c0-1.476 1.17-2.671 2.6-2.671h12.826c5.38 0 10.207 1.865 13.99 5.485 3.497 3.348 5.452 7.573 5.452 12.147 0 4.736-2.123 8.982-5.9 11.906-3.726 2.89-8.348 4.312-13.542 4.312h-4.522v14.598h13.292c9.251 0 16.838-2.979 23.265-9.054 6.423-6.07 9.495-13.145 9.495-21.862 0-9.031-3.076-16.418-9.47-22.738-6.399-6.33-13.824-9.395-22.799-9.395l-44.413-.003zm155.806 0c-10.55 0-19.516 3.212-27.301 9.716-7.804 6.519-11.39 13.5-11.39 21.521 0 9.682 3.696 17.166 11.543 23.256 7.355 5.693 16.256 8.557 27.031 8.557h39.507v-14.599h-37.489c-4.97 0-9.454-1.681-12.998-4.907-3.568-3.249-5.513-7.637-5.513-12.522 0-4.662 1.874-8.86 5.298-11.888 3.453-3.053 8.002-4.527 13.213-4.527h12.809c.996.002 1.902.588 2.335 1.508.433.921.317 2.014-.298 2.819l-14.224 18.406h21.579l15.291-20.94v-16.401h-39.388z"/><path d="m397.044 40.822v83.477h20.181v-83.482h-20.177zm130.36 0v11.629h11.819c.628-.001 1.233.254 1.677.709.443.457.692 1.079.69 1.725v55.37c.002.642-.247 1.263-.69 1.723-.444.457-1.049.712-1.677.709h-11.816v11.651h31.67v-83.513h-31.673zm40.928 0v83.517h31.668v-11.649h-11.815c-.63.002-1.233-.253-1.677-.71-.444-.46-.694-1.079-.685-1.722v-55.371c-.01-.646.243-1.268.685-1.725.444-.456 1.047-.711 1.677-.709h11.815v-11.63h-31.663zm-401.352 19.947c-9.447 0-17.147 3.106-23.577 9.494-6.471 6.429-9.546 13.574-9.546 21.879 0 8.195 3.224 15.435 10.071 22.184 6.828 6.728 14.451 9.973 23.285 9.973h12.943v-15.075h-5.471c-4.981 0-9.428-1.618-12.904-4.788-3.476-3.165-5.356-7.383-5.356-12.063 0-4.737 1.843-8.953 5.278-11.992 3.415-3.024 7.796-4.529 12.748-4.529h13.758c.628-.001 1.232.254 1.675.71.444.457.694 1.079.692 1.722v46.02h20.18v-63.534h-43.775zm56.249 0v83.475h20.2v-65.967c-.002-.642.247-1.264.691-1.721s1.048-.712 1.675-.711h12.807c5.33 0 10.095 1.849 13.835 5.425 3.459 3.314 5.376 7.461 5.376 11.968 0 4.663-2.072 8.822-5.801 11.71-3.688 2.856-8.256 4.273-13.409 4.273h-4.755v15.076h13.525c9.303 0 16.99-3.001 23.46-9.119 6.465-6.104 9.546-13.259 9.546-22.035 0-9.094-3.091-16.557-9.528-22.918-6.444-6.369-13.963-9.455-22.994-9.455l-44.625-.01zm86.913 0v83.475h20.18v-65.967c-.001-.642.246-1.264.69-1.721.446-.457 1.044-.712 1.678-.711h12.821c5.334 0 10.095 1.849 13.835 5.425 3.457 3.314 5.376 7.461 5.377 11.968-.001 4.671-2.096 8.824-5.822 11.71-3.685 2.855-8.238 4.273-13.391 4.273h-4.759v15.076h13.524c9.305 0 16.974-2.999 23.441-9.119 6.467-6.104 9.546-13.259 9.546-22.035 0-9.094-3.087-16.557-9.528-22.918-6.442-6.371-13.944-9.455-22.974-9.455l-44.615-.01zm156.04 0c-10.596 0-19.632 3.217-27.457 9.754-7.842 6.551-11.468 13.624-11.468 21.72 0 9.752 3.726 17.328 11.622 23.458 7.399 5.724 16.365 8.598 27.187 8.598h39.736v-15.08h-37.73c-4.922 0-9.344-1.659-12.845-4.846-3.522-3.211-5.433-7.525-5.433-12.35 0-4.599 1.842-8.7 5.22-11.687 3.405-3.012 7.892-4.49 13.058-4.49h12.81c.908-.002 1.742.535 2.134 1.377.395.844.282 1.845-.29 2.573l-14.515 18.791h22.18l15.408-21.104v-16.711h-39.632z"/></g></svg>

<?xml version="1.0" encoding="utf-8"?>
<svg xmlns="http://www.w3.org/2000/svg" xmlns:bx="https://boxy-svg.com">
  <path id="path5" d="M 98.393 31.43 C 104.961 24.224 108.383 14.105 108.855 0.494 L 108.866 0 L 108.382 0.099 C 85.313 4.817 73.401 19.274 72.973 43.066 L 72.965 43.529 L 73.423 43.458 C 84.409 41.737 92.574 37.802 98.383 31.43 Z" style="fill: rgb(255, 255, 255);" bx:origin="-2.032 0"/>
  <path id="path7" d="M 19.016 153.809 L 19.44 154.419 C 23.253 159.918 27.625 165.268 32.434 170.325 C 36.096 174.175 41.931 176.294 48.86 176.294 C 53.939 176.294 59.205 175.099 62.604 173.177 C 69.635 169.203 73.362 169.194 76.082 169.19 C 76.628 169.19 77.138 169.188 77.629 169.159 L 78.073 169.13 C 78.662 169.093 79.269 169.052 79.955 169.052 C 82.367 169.052 85.968 169.525 92.517 173.226 C 97.087 175.142 101.519 176.112 105.688 176.112 L 105.69 176.112 C 117.045 176.112 127 169.006 136.125 154.405 L 136.498 153.809 L 19.016 153.809 L 19.019 153.798 Z" style="fill: rgb(255, 255, 255);" bx:origin="-0.162 -6.837"/>
  <path id="path9" d="M 137.846 62.691 C 139.363 61.179 141 59.686 142.758 58.22 L 143.052 57.975 L 142.81 57.676 C 134.251 47.119 122.531 41.426 108.919 41.211 L 108.295 41.208 C 101.396 41.208 95.295 42.502 90.653 44.948 C 84.632 48.118 80.156 48.821 80.112 48.827 C 80.034 48.838 79.54 48.857 78.189 48.857 C 76.548 48.857 75.131 48.83 74.961 48.806 L 74.853 48.792 C 72.923 48.543 68.002 47.733 64.014 45.607 C 58.593 42.717 52.554 41.188 46.55 41.188 L 46.154 41.19 C 30.278 41.367 17.006 49.104 8.76 62.691 L 137.855 62.691 Z" style="fill: rgb(255, 255, 255);" bx:origin="-0.065 -1.915"/>
  <path id="path11" d="M 124.532 85.261 C 126.094 77.707 130.312 70.372 137.188 63.354 L 137.836 62.691 L 8.762 62.691 L 8.648 62.879 C 4.692 69.443 2.072 77.036 0.827 85.26 L 124.535 85.261 Z" style="fill: rgb(255, 255, 255);" bx:origin="-0.006 -2.778"/>
  <path id="path13" d="M 127.56 107.558 C 124.439 101.145 122.906 93.737 124.459 85.731 L 124.548 85.267 L 0.84 85.267 L 0.795 85.596 C -0.251 92.726 -0.251 100.108 0.717 107.556 L 127.569 107.556 Z" style="fill: rgb(255, 255, 255);" bx:origin="0 -3.825"/>
  <path id="path15" d="M 6.788 130.944 L 148.166 130.944 L 148.993 129.153 L 148.653 128.986 C 141.887 125.636 132.817 118.302 127.652 107.77 L 127.545 107.553 L 0.713 107.553 L 0.772 107.992 C 1.635 114.463 3.398 122.294 6.795 130.953 Z" style="fill: rgb(255, 255, 255);" bx:origin="-0.005 -4.596"/>
  <path id="path17" d="M 19.019 153.809 L 136.49 153.809 C 140.974 146.54 144.672 138.537 147.92 131.505 L 148.175 130.952 L 6.808 130.952 L 7.022 131.486 C 10.116 139.199 14.129 146.658 19.021 153.809 Z" style="fill: rgb(255, 255, 255);" bx:origin="-0.048 -5.729"/>
  <path id="path4012_1_" d="M 397.279 40.935 L 397.279 123.93 L 416.994 123.93 L 416.994 40.934 L 397.284 40.934 Z M 527.638 40.935 L 527.638 52.084 L 539.222 52.084 C 540.658 52.084 541.821 53.281 541.821 54.758 L 541.821 110.127 C 541.821 111.605 540.649 112.8 539.222 112.8 L 527.638 112.8 L 527.638 123.972 L 558.838 123.972 L 558.838 40.933 L 527.643 40.933 Z M 568.566 40.935 L 568.566 123.972 L 599.768 123.972 L 599.768 112.8 L 588.186 112.8 C 586.747 112.8 585.585 111.605 585.585 110.127 L 585.585 54.755 C 585.585 53.279 586.748 52.082 588.186 52.082 L 599.768 52.082 L 599.768 40.933 L 568.562 40.933 Z M 166.98 60.88 C 157.586 60.88 149.947 63.969 143.558 70.314 C 137.126 76.707 134.089 83.776 134.089 92.018 C 134.089 100.142 137.293 107.313 144.101 114.017 C 150.893 120.71 158.437 123.93 167.212 123.93 L 179.922 123.93 L 179.922 109.331 L 174.683 109.331 C 169.653 109.331 165.143 107.687 161.624 104.483 C 158.104 101.28 156.19 96.983 156.19 92.238 C 156.19 87.444 158.065 83.128 161.547 80.05 C 165.008 76.986 169.453 75.483 174.451 75.483 L 188.209 75.483 C 189.645 75.483 190.808 76.678 190.808 78.154 L 190.808 123.93 L 210.523 123.93 L 210.523 60.879 L 166.96 60.879 Z M 223.463 60.88 L 223.463 143.876 L 243.197 143.876 L 243.197 78.155 C 243.197 76.679 244.361 75.484 245.797 75.484 L 258.603 75.484 C 263.984 75.484 268.812 77.349 272.593 80.969 C 276.089 84.317 278.045 88.542 278.045 93.116 C 278.045 97.846 275.945 102.094 272.165 105.022 C 268.434 107.916 263.795 109.334 258.602 109.334 L 254.08 109.334 L 254.08 123.932 L 267.373 123.932 C 276.625 123.932 284.232 120.951 290.659 114.878 C 297.081 108.808 300.147 101.733 300.147 93.016 C 300.147 83.985 297.073 76.598 290.677 70.278 C 284.273 63.95 276.834 60.883 267.857 60.883 L 223.455 60.88 Z M 310.376 60.88 L 310.376 143.876 L 330.09 143.876 L 330.09 78.155 C 330.09 76.679 331.26 75.484 332.69 75.484 L 345.516 75.484 C 350.896 75.484 355.723 77.349 359.506 80.969 C 363.003 84.317 364.958 88.542 364.958 93.116 C 364.958 97.852 362.835 102.098 359.058 105.022 C 355.332 107.912 350.71 109.334 345.516 109.334 L 340.994 109.334 L 340.994 123.932 L 354.286 123.932 C 363.537 123.932 371.124 120.953 377.551 114.878 C 383.974 108.808 387.046 101.733 387.046 93.016 C 387.046 83.985 383.97 76.598 377.576 70.278 C 371.177 63.948 363.752 60.883 354.777 60.883 L 310.364 60.88 Z M 466.182 60.88 C 455.632 60.88 446.666 64.092 438.881 70.596 C 431.077 77.115 427.491 84.096 427.491 92.117 C 427.491 101.799 431.187 109.283 439.034 115.373 C 446.389 121.066 455.29 123.93 466.065 123.93 L 505.572 123.93 L 505.572 109.331 L 468.083 109.331 C 463.113 109.331 458.629 107.65 455.085 104.424 C 451.517 101.175 449.572 96.787 449.572 91.902 C 449.572 87.24 451.446 83.042 454.87 80.014 C 458.323 76.961 462.872 75.487 468.083 75.487 L 480.892 75.487 C 481.888 75.489 482.794 76.075 483.227 76.995 C 483.66 77.916 483.544 79.009 482.929 79.814 L 468.705 98.22 L 490.284 98.22 L 505.575 77.28 L 505.575 60.879 L 466.187 60.879 Z" style="fill: rgb(255, 255, 255);" bx:origin="-0.288 -0.398"/>
  <path id="path4019_1_" d="M 397.044 40.822 L 397.044 124.299 L 417.225 124.299 L 417.225 40.817 L 397.048 40.817 Z M 527.404 40.822 L 527.404 52.451 L 539.223 52.451 C 539.851 52.45 540.456 52.705 540.9 53.16 C 541.343 53.617 541.592 54.239 541.59 54.885 L 541.59 110.255 C 541.592 110.897 541.343 111.518 540.9 111.978 C 540.456 112.435 539.851 112.69 539.223 112.687 L 527.407 112.687 L 527.407 124.338 L 559.077 124.338 L 559.077 40.825 L 527.404 40.825 Z M 568.332 40.822 L 568.332 124.339 L 600 124.339 L 600 112.69 L 588.185 112.69 C 587.555 112.692 586.952 112.437 586.508 111.98 C 586.064 111.52 585.814 110.901 585.823 110.258 L 585.823 54.887 C 585.813 54.241 586.066 53.619 586.508 53.162 C 586.952 52.706 587.555 52.451 588.185 52.453 L 600 52.453 L 600 40.823 L 568.337 40.823 Z M 166.98 60.769 C 157.533 60.769 149.833 63.875 143.403 70.263 C 136.932 76.692 133.857 83.837 133.857 92.142 C 133.857 100.337 137.081 107.577 143.928 114.326 C 150.756 121.054 158.379 124.299 167.213 124.299 L 180.156 124.299 L 180.156 109.224 L 174.685 109.224 C 169.704 109.224 165.257 107.606 161.781 104.436 C 158.305 101.271 156.425 97.053 156.425 92.373 C 156.425 87.636 158.268 83.42 161.703 80.381 C 165.118 77.357 169.499 75.852 174.451 75.852 L 188.209 75.852 C 188.837 75.851 189.441 76.106 189.884 76.562 C 190.328 77.019 190.578 77.641 190.576 78.284 L 190.576 124.304 L 210.756 124.304 L 210.756 60.77 L 166.981 60.77 Z M 223.229 60.769 L 223.229 144.244 L 243.429 144.244 L 243.429 78.277 C 243.427 77.635 243.676 77.013 244.12 76.556 C 244.564 76.099 245.168 75.844 245.795 75.845 L 258.602 75.845 C 263.932 75.845 268.697 77.694 272.437 81.27 C 275.896 84.584 277.813 88.731 277.813 93.238 C 277.813 97.901 275.741 102.06 272.012 104.948 C 268.324 107.804 263.756 109.221 258.603 109.221 L 253.848 109.221 L 253.848 124.297 L 267.373 124.297 C 276.676 124.297 284.363 121.296 290.833 115.178 C 297.298 109.074 300.379 101.919 300.379 93.143 C 300.379 84.049 297.288 76.586 290.851 70.225 C 284.407 63.856 276.888 60.77 267.857 60.77 L 223.232 60.76 Z M 310.142 60.769 L 310.142 144.244 L 330.322 144.244 L 330.322 78.277 C 330.321 77.635 330.568 77.013 331.012 76.556 C 331.458 76.099 332.056 75.844 332.69 75.845 L 345.511 75.845 C 350.845 75.845 355.606 77.694 359.346 81.27 C 362.803 84.584 364.722 88.731 364.723 93.238 C 364.722 97.909 362.627 102.062 358.901 104.948 C 355.216 107.803 350.663 109.221 345.51 109.221 L 340.751 109.221 L 340.751 124.297 L 354.275 124.297 C 363.58 124.297 371.249 121.298 377.716 115.178 C 384.183 109.074 387.262 101.919 387.262 93.143 C 387.262 84.049 384.175 76.586 377.734 70.225 C 371.292 63.854 363.79 60.77 354.76 60.77 L 310.145 60.76 Z M 466.182 60.769 C 455.586 60.769 446.55 63.986 438.725 70.523 C 430.883 77.074 427.257 84.147 427.257 92.243 C 427.257 101.995 430.983 109.571 438.879 115.701 C 446.278 121.425 455.244 124.299 466.066 124.299 L 505.802 124.299 L 505.802 109.219 L 468.072 109.219 C 463.15 109.219 458.728 107.56 455.227 104.373 C 451.705 101.162 449.794 96.848 449.794 92.023 C 449.794 87.424 451.636 83.323 455.014 80.336 C 458.419 77.324 462.906 75.846 468.072 75.846 L 480.882 75.846 C 481.79 75.844 482.624 76.381 483.016 77.223 C 483.411 78.067 483.298 79.068 482.726 79.796 L 468.211 98.587 L 490.391 98.587 L 505.799 77.483 L 505.799 60.772 L 466.167 60.772 Z" style="fill: rgb(255, 255, 255);" bx:origin="-0.287 -0.395"/>
</svg>
